assets/squiggle_line_stripe.svg

<svg height="128" viewBox="0 0 79 128" width="79" xmlns="http://www.w3.org/2000/svg"><g fill="none" fill-rule="evenodd"><path d="m74.79 3.46c-1-1.54-2.24-3.46-4.73-3.46s-3.73 1.92-4.73 3.46-1.72 2.54-3.06 2.54-2-1-3.05-2.54-2.22-3.46-4.73-3.46-3.73 1.92-4.73 3.46-1.76 2.54-3.06 2.54-2-1-3.05-2.54-2.24-3.46-4.73-3.46-3.73 1.92-4.73 3.46-1.72 2.54-3.05 2.54-2-1-3.05-2.54-2.25-3.46-4.74-3.46-3.73 1.92-4.73 3.46-1.72 2.54-3.05 2.54-2-1-3.05-2.54-2.25-3.46-4.74-3.46-3.73 1.92-4.73 3.46-1.72 2.54-3.05 2.54v2c2.49 0 3.73-1.92 4.73-3.46s1.72-2.54 3.05-2.54 2 1 3.05 2.54 2.25 3.46 4.74 3.46 3.73-1.92 4.73-3.46 1.7-2.54 3.05-2.54 2 1 3.05 2.54 2.25 3.46 4.74 3.46 3.73-1.92 4.73-3.46 1.71-2.54 3.05-2.54 2 1 3.05 2.54 2.24 3.46 4.73 3.46 3.73-1.92 4.73-3.46 1.72-2.54 3.06-2.54 2 1 3.05 2.54 2.24 3.46 4.73 3.46 3.73-1.92 4.73-3.46 1.72-2.54 3.06-2.54 2 1 3.05 2.54 2.24 3.46 4.73 3.46h.37v-2c-.1231511.00948148-.2468489.00948148-.37 0-1.33 0-2.03-1-3.05-2.54z" fill="#fff"/><path d="m39 29.5v97.078125" stroke="#fff" stroke-linecap="square"/></g></svg>

<?xml version="1.0" encoding="UTF-8"?> <svg xmlns="http://www.w3.org/2000/svg" width="79" height="128" viewBox="0 0 79 128"><g fill="none" fill-rule="evenodd"><path fill="#FFF" d="M74.79,3.46 C73.79,1.92 72.55,0 70.06,0 C67.57,0 66.33,1.92 65.33,3.46 C64.33,5 63.61,6 62.27,6 C60.93,6 60.27,5 59.22,3.46 C58.17,1.92 57,0 54.49,0 C51.98,0 50.76,1.92 49.76,3.46 C48.76,5 48,6 46.7,6 C45.4,6 44.7,5 43.65,3.46 C42.6,1.92 41.41,0 38.92,0 C36.43,0 35.19,1.92 34.19,3.46 C33.19,5 32.47,6 31.14,6 C29.81,6 29.14,5 28.09,3.46 C27.04,1.92 25.84,0 23.35,0 C20.86,0 19.62,1.92 18.62,3.46 C17.62,5 16.9,6 15.57,6 C14.24,6 13.57,5 12.52,3.46 C11.47,1.92 10.27,0 7.78,0 C5.29,0 4.05,1.92 3.05,3.46 C2.05,5 1.33,6 0,6 L0,8 C2.49,8 3.73,6.08 4.73,4.54 C5.73,3 6.45,2 7.78,2 C9.11,2 9.78,3 10.83,4.54 C11.88,6.08 13.08,8 15.57,8 C18.06,8 19.3,6.08 20.3,4.54 C21.3,3 22,2 23.35,2 C24.7,2 25.35,3 26.4,4.54 C27.45,6.08 28.65,8 31.14,8 C33.63,8 34.87,6.08 35.87,4.54 C36.87,3 37.58,2 38.92,2 C40.26,2 40.92,3 41.97,4.54 C43.02,6.08 44.21,8 46.7,8 C49.19,8 50.43,6.08 51.43,4.54 C52.43,3 53.15,2 54.49,2 C55.83,2 56.49,3 57.54,4.54 C58.59,6.08 59.78,8 62.27,8 C64.76,8 66,6.08 67,4.54 C68,3 68.72,2 70.06,2 C71.4,2 72.06,3 73.11,4.54 C74.16,6.08 75.35,8 77.84,8 L78.21,8 L78.21,6 C78.0868489,6.00948148 77.9631511,6.00948148 77.84,6 C76.51,6 75.81,5 74.79,3.46 Z"></path><path stroke="#FFF" stroke-linecap="square" d="M39,29.5 L39,126.578125"></path></g></svg>
